src/assets/XLogo.svg

<svg xmlns="http://www.w3.org/2000/svg" x="0px" y="0px" width="100" height="100" viewBox="0 0 48 48"
style="fill:#1A1A1A;">
<path d="M 12.5 6 C 8.916 6 6 8.916 6 12.5 L 6 35.5 C 6 39.084 8.916 42 12.5 42 L 35.5 42 C 39.084 42 42 39.084 42 35.5 L 42 12.5 C 42 8.916 39.084 6 35.5 6 L 12.5 6 z M 13.828125 14 L 20.265625 14 L 25.123047 20.943359 L 31.136719 14 L 33.136719 14 L 26.025391 22.234375 L 34.257812 34 L 27.820312 34 L 22.470703 26.351562 L 15.865234 34 L 13.822266 34 L 21.564453 25.056641 L 13.828125 14 z M 16.935547 15.695312 L 28.587891 32.304688 L 31.150391 32.304688 L 19.498047 15.695312 L 16.935547 15.695312 z"></path>
</svg>

<svg xmlns="http://www.w3.org/2000/svg" x="0px" y="0px" width="100" height="100" viewBox="0,0,256,256"
style="fill:#1A1A1A;">
<g transform="translate(-69.12,-69.12) scale(1.54,1.54)"><g fill="#1a1a1a" fill-rule="nonzero" stroke="none" stroke-width="1" stroke-linecap="butt" stroke-linejoin="miter" stroke-miterlimit="10" stroke-dasharray="" stroke-dashoffset="0" font-family="none" font-weight="none" font-size="none" text-anchor="none" style="mix-blend-mode: normal"><g transform="scale(5.33333,5.33333)"><path d="M12.5,6c-3.584,0 -6.5,2.916 -6.5,6.5v23c0,3.584 2.916,6.5 6.5,6.5h23c3.584,0 6.5,-2.916 6.5,-6.5v-23c0,-3.584 -2.916,-6.5 -6.5,-6.5zM13.82813,14h6.4375l4.85742,6.94336l6.01367,-6.94336h2l-7.11133,8.23438l8.23242,11.76563h-6.4375l-5.34961,-7.64844l-6.60547,7.64844h-2.04297l7.74219,-8.94336zM16.93555,15.69531l11.65234,16.60938h2.5625l-11.65234,-16.60938z"></path></g></g></g>
</svg>
